X: 5
T: The Humours Of Glendart
R: jig
M: 6/8
L: 1/8
K: Dmaj
|: BAF ADD | FED ADD | BAF ADD | FEE EFA |BAF ADD | FED ADD | dfe dcB | AFE EFA :||: dfe dcB | ABA AFA | dfe d2 f | ede fdB |dfe dcB | ABA ABd | efg fdB | AFE EFA :|


Tune 45	Setting 45

